images/close3.svg

<svg width="24" height="24" viewBox="0 0 24 24" fill="none" xmlns="http://www.w3.org/2000/svg">
<circle cx="12" cy="12" r="12" fill="#404BBF"/>
<g clip-path="url(#clip0_297024_950)">
<path d="M16 8.80571L15.1943 8L12 11.1943L8.80571 8L8 8.80571L11.1943 12L8 15.1943L8.80571 16L12 12.8057L15.1943 16L16 15.1943L12.8057 12L16 8.80571Z" fill="white"/>
</g>
<defs>
<clipPath id="clip0_297024_950">
<rect width="8" height="8" fill="white" transform="translate(8 8)"/>
</clipPath>
</defs>
</svg>

<svg xmlns="http://www.w3.org/2000/svg" width="24" height="24" fill="none"><circle cx="12" cy="12" r="12" fill="#404BBF"/><g clip-path="url(#a)"><path fill="#fff" d="m16 8.8-.8-.8-3.2 3.2L8.8 8l-.8.8 3.2 3.2L8 15.2l.8.8 3.2-3.2 3.2 3.2.8-.8-3.2-3.2L16 8.8Z"/></g><defs><clipPath id="a"><path fill="#fff" d="M8 8h8v8H8z"/></clipPath></defs></svg>
